packages/icons/src/pencil-line.svg

<svg width="24" height="24" viewBox="0 0 24 24" fill="none" xmlns="http://www.w3.org/2000/svg">
<path fill-rule="evenodd" clip-rule="evenodd" d="M16.7168 4.11925L16.8263 4.22092L19.6547 7.04935C20.4002 7.79489 20.4341 8.98261 19.7564 9.76835L19.6547 9.87777L9.4623 20.0702H5.30545C4.5288 20.0702 3.89001 19.4799 3.81319 18.7235L3.80545 18.5702V14.4133L13.9978 4.22092C14.7434 3.47537 15.9311 3.44148 16.7168 4.11925ZM20 18V20H12L14 18H20ZM12.5836 8.46356L5.80601 15.2412V18.0696L8.63514 18.0689L15.4121 11.292L12.5836 8.46356ZM15.4121 5.63513L13.9978 7.04935L16.8263 9.87777L18.2405 8.46356L15.4121 5.63513Z" fill="black"/>
</svg>

<svg xmlns="http://www.w3.org/2000/svg" width="24" height="24" fill="none" viewBox="0 0 24 24">
  <path fill="#000" fill-rule="evenodd" d="m16.717 4.12.11.1 2.828 2.83a2 2 0 0 1 .101 2.718l-.101.11L9.462 20.07H5.305a1.5 1.5 0 0 1-1.492-1.346l-.008-.154v-4.157L13.998 4.221a2 2 0 0 1 2.719-.102ZM20 18v2h-8l2-2h6Zm-7.416-9.536L5.806 15.24v2.829l2.83-.001 6.776-6.777-2.828-2.828Zm2.828-2.829L13.998 7.05l2.828 2.829 1.415-1.414-2.829-2.829Z" clip-rule="evenodd"/>
</svg>
